!!!COM: Fux, Johann Joseph
!!!OMD: Gradus ad Parnassum Exercise
!!!YEC: CC0 1.0 Universal (Public Domain). Mark Gotham and FourScoreAndMore.org waive all rights to this document.
**kern	**kern	**kern
*part3	*part2	*part1
*staff3	*staff2	*staff1
*I"3	*I"2	*I"1
*I'Pno	*I'Pno	*I'Pno
!!LO:LB:g=z
*clefF4	*clefGv2	*clefG2
*k[]	*k[]	*k[]
!!LO:TX:omd:t=
*M4/4	*M4/4	*M4/4
=353	=353	=353
!	!	!LO:TX:a:t=Fig. 144; Species&colon; 4; Modal final&colon; d; Cantus firmus&colon; 1
1r	1D	1d
=354	=354	=354
2r	1d	1f
[2D\	.	.
=355	=355	=355
2D\]	1G	1e
[2C/	.	.
=356	=356	=356
2C/]	1G	1d
[2BB/	.	.
=357	=357	=357
2BB/]	1B	1g
[2E\	.	.
=358	=358	=358
2E\]	1A	1f
[2D\	.	.
=359	=359	=359
2D\]	1F	1a
[2F\	.	.
=360	=360	=360
2F\]	1c	1g
[2E\	.	.
=361	=361	=361
2E\]	1A	1f
[2D\	.	.
=362	=362	=362
2D\]	1G	1e
2C#X/	.	.
=363	=363	=363
1D	1F#X	1d
==	==	==
*-	*-	*-
!!!software: music21 v.9.7.1
!!!software: music21 v.9.7.1
!!!software: MuseScore 3.4.2
!!!RDF**kern: > = above
!!!RDF**kern: < = below
